X:1
T:The Mercy of God Is an Ocean Divine
T:Russell Kelso Carter
T:The Mercy of God Is an Ocean Divine
T:Public Domain
T:Public Domain
T:Public Domain
C:Russell Kelso Carter
Z:Public Domain
%%score ( 1 2 ) ( 3 4 )
L:1/8
M:4/4
K:D
V:1 treble 
V:2 treble 
V:3 bass 
V:4 bass 
V:1
 D2 | D2 [DF]>[EG] [FA]2 [FA][FA] | [GB]2 [Gd]>[GB] [FA]3 [FA] | [GB]2 [GB]>[GB] [FA][FA] [DF]2 | %4
w: 1.~The|cy of God is an o-|di- vine, A bound- less|and fa- thom- less flood. Launch|
w: 2.~But|ny, a- las! on- ly stand|the shore, And gaze on|the o- cean so wide. They|
w: 3.~And|thers just ven- ture a- way|the land, And lin- ger|so near to the shore That~the|
w: 4.~Oh,|us launch out on this o-|so broad, Where floods of|sal- va- tion o’er- flow. Oh,|
 [CE]6 ([CE][CE]) | D2 [DF]>[FA] [Fd]2 [Ad]>[Ad] | [Ge][Gd](dB) [FA]2 [FA][FA] | %7
w: out in *|the deep, cut a- way the|line, And be * lost in the|
w: nev- er *|have ven- tured its depths to|plore, Or to * launch on the|
w: surf and *|the slime that beat o- ver|strand Dash o- * ver them in|
w: let us *|be lost in the mer- cy|God, Till the * depths of His|
 [E^G]2 [EG][EA] [GB]2 [Gc]>[GB] | [EA]6 ||"^Refrain" A2 | (z2 F>F d>)A c>B x2 | %11
w: ness of God. * * *||||
w: thom- less tide. Launch out, in-|to|the|* * * Oh let the|
w: ev- er- more. * * *||||
w: ness we know. * * *||||
 (z2 F>F F2) [FA]2 | [FA]3 [DF] D2 [DF]2 | [CE]6 [CE]2 | D2 (FA) [Fd]2 [FA]>[FA] | %15
w: ||||
w: * * * Launch|launch out in the|cean di-|vine, Out * where the full|
w: ||||
w: ||||
 [GB]2 [Gd]>[GB] [FA]4 | [FA]2 D[DE] [DF]2 [CE]2 | D6 |] %18
w: |||
w: |||
w: |||
w: |||
V:2
 D2 | D2 x6 | x8 | x8 | x8 | D2 x6 | x2 G2 x4 | x8 | x6 || A2 | (d6 F2) c>B | (A6 F2) | x4 D2 x2 | %13
w: mer-|cean||||shore|full-|||||||
w: ma-|on||||ex-|fa-|||deep.|shore * line go.|out, *|o-|
w: o-|from||||the|floods|||||||
w: let|cean||||of|full-|||||||
 x8 | D2 D2 x4 | x8 | x2 D x5 | D6 |] %18
w: |||||
w: |tides flow.||||
w: |||||
w: |||||
V:3
 [D,F,]2 | [D,F,]2 [D,A,]>[D,A,] [D,D]2 [D,D][D,D] | [G,D]2 [G,B,]>[G,D] [D,D]3 [D,D] | %3
 [G,D]2 [G,D]>[G,D] [D,D][D,A,] [B,,^G,]2 | [A,,A,]6 ([A,,G,][A,,G,]) | %5
 [D,F,]2 [D,A,]>[D,A,] [D,A,]2 [F,D]>[F,D] | [G,B,][G,B,](B,D) [D,D]2 [D,D][D,D] | %7
 [E,B,]2 [E,B,][E,C] [E,D]2 [E,E]>[E,D] | [A,C]6 || z2 | z2 ([D,A,]>[D,A,] [D,A,]2) z2 x2 | %11
 z2 [D,D]>[D,D] [D,D]2 [D,D]2 | [D,D]3 [D,A,] [D,F,]2 [B,,^G,]2 | [A,,A,]6 (A,G,) | %14
 [D,F,]2 [D,A,]2 [D,A,]2 [D,D]>[D,D] | [G,D]2 [G,B,]>[G,D] [F,D]4 | %16
 [D,A,]2 [F,A,][G,B,] A,2 [A,,G,]2 | [D,F,]6 |] %18
V:4
 x2 | x8 | x8 | x8 | x8 | x8 | x2 G,2 x4 | x8 | x6 || x2 | x10 | x8 | x8 | x6 A,,2 | x8 | x8 | x8 | %17
 x6 |] %18

